X:1
T:D minor              Jacob French, 1789
T:Nahum Tate and Nicholas Brady, 1698 New Version (Psalm 80)        88. 88. (L. M.)
T:Carolina
T:Transcribed from  The New American Melody, 1789.
%%score [ 1 2 3 4 ]
L:1/8
Q:1/4=110
M:2/2
K:F
V:1 treble nm="Tr." snm="Tr."
V:2 treble nm="C." snm="C."
V:3 treble-8 nm="T." snm="T."
V:4 bass nm="B." snm="B."
V:1
 A4 A2 A2 | A2 A2 A2 d2 | (c3 d cB) AG | A6 G2 | (F3 G A2) A2 | d2 c2 B2 A2 | A8 | A4 AG AB | %8
 c2 A2 B2 G2 | (F3 G AB) c2 | %10
"^1. –gain in solemn  state ___ ap–pear.                              Thou   that dost  on  the cherubs  ride, A–gain  in   so–lemn  state __ ap–pear,     A–gain  in   so–lemn\n2. scattered clouds shall pass  a – way.                               And       all   the  ills  we  suf–fer now, Like scattered clouds shall pass away, Like scattered clouds shall\n3. always  praise  thy   ho  –  ly    name.                             And       if  once more revived  by thee, Will   always praise thy  ho   –   ly  name,    Will always praise thy" d2 cB A2 A2 | %11
 (c3 B A2) A2 | A8 |: z8 | z4 A4 | c2 A2 B2 G2 | A2 A2 AB c2 | d2 cB A2 G2 | (c3 B A2) A2 | A6 c2 | %20
 d2 cB A2 G2 | %21
"^1. state ___ ap–pear,               A – gain   in  solemn   state      ap    –    pear.\n2. pass ___  a – way,                Like scattered clouds shall pass  a     –    way.\n3. ho     –    ly  name,                Will   al–ways  praise  thy   ho – ly        name." (A3 B c2) c2 | %22
 c6 c2 | d2 c2 c2 B2 | A4 A4 | A8 :| %26
V:2
"^1. O Israel's shepherd, Joseph's guide, ______  Our prayers, Our  prayers ___    to  thee  vouchsafe to hear,  Thou that dost on the Cherubs  ride, ________  A –\n2.  Do thou convert us. Lord, do thou _______  The     lus  – ter,   lus       –        ter  of   thy  face  dis–play;   And   all   the  ills  we  suf–fer now _________  Like\n3.  So shall we still con–ti–nue  free _______  From  what–so – e'er, _____ what–e'er deserves thy blame,  And  if once more revived  by  thee, ________  Will" D4 F2 F2 | %1
 E2 E2 F2 F>G | (A3 B AG) FE | F6 E2 | (D3 ^C D2) C2 | DE F2 GF E2 | F8 | F4 E2 E2 | F2 D2 E2 E2 | %9
 (D3 E F2) G2 | %10
"^1. –gain in solemn  state ___ ap–pear.         Thou that dost on the cherubs ride,  Again  in   so–lemn  state ___  ap – pear,       Again in solemn  state      ap  –\n2. scattered clouds shall pass  a – way.          And   all   the  ills  we suf–fer now   Like scattered clouds shall pass  a  – way,     Like scatter'd clouds shall pass a –\n3. always  praise  thy   ho  –  ly    name.         And  if  once more revived by thee,   Will  al–ways praise thy  ho  –   ly   name,       Will  always  praise  thy  ho –  ly" A2 A2 F2 ED | %11
 E6 E2 | F8 |: z4 E4 | G2 F2 E2 E2 | F2 D2 E2 E2 | F2 F2 F2 G2 | (A2 G2 F2) ED | E6 E2 | %19
 F2 F2 F2 F2 | (A2 G2) (F2 GE) | %21
"^1. –pear,     A    –    gain in solemn state, A–gain  in  solemn  state  ap – pear.\n2. –way,  Like scatter'd clouds shall pass, Like scatter'd clouds shall pass away.\n3. name,     Will    praise thy ho–ly name, Will  always  praise  thy  ho–ly name." F4 G4 | %22
 A2 A2 A2 G2 | F2 G2 A2 G2 | F2 F2 E2 E2 | F8 :| %26
V:3
 A4 d2 d2 | ^c2 c2 d2 d2 | e6 d^c | d6 cB | A6 F2 | G2 A2 d2 ^c2 | d8 | d4 cd cB | A2 F2 (GA B2) | %9
 (A2 d^c) d2 e2 | %10
"^1. –gain in solemn  state ___ ap–pear.                   Thou  that  dost on the cherubs  ride, ______  A–gain in so– lemn state  ap  –  pear,      A–gain  in   so–lemn\n2. scattered clouds shall pass  a – way.                    And    all    the   ills we  suf–fer now  _____  Like scattered clouds shall pass away, Like scattered clouds shall\n3. always  praise  thy   ho  –  ly   name.                     And    if   once more revived by thee,  _____ Will  always  praise  thy  ho  –  ly   name,   Will always praise thy" f2 e2 d2 cB | %11
 A4 ^c4 | d8 |: z8 | d4 cd cB | A2 F2 GA B2 | (A2 d^c d2) e2 | f2 e2 d2 cB | A4 ^c4 | d6 e2 | %20
 f2 e2 d2 ^c2 | %21
"^1. state     ap   –   pear,            A – gain   in  solemn   state      ap    –    pear.\n2. pass        a    –   way,            Like scattered clouds shall pass  a     –    way.\n3. ho    –    ly        name,           Will   al–ways  praise  thy   ho – ly        name." d4 e4 | %22
 f6 g2 | a2 g2 f2 e2 | (d2 ^c4) c2 | d8 :| %26
V:4
 D,4 D,2 D,2 | A,2 A,2 F,2 D,2 | [A,,A,]6 A,,2 | D,6 E,2 | (F,3 E, D,2) [A,,A,]2 | %5
 [B,,B,]2 [A,,A,]2 [G,,G,]2 [A,,A,]2 | D,8 | D,4 A,B, A,G, | F,2 F,2 E,2 E,2 | (F,3 E, D,2) C,2 | %10
 D,2 E,2 F,2 G,2 | A,4 A,,4 | D,8 |: %13
"^1. Thou that dost on the cherubs ride, ___ A–gain  in  so – lemn  state     ap   –  pear,        Again in solemn  state     ap    –\n2. And   all  the  ills  we  suf–fer  now  __ Like scattered clouds shall pass  a    –  way,     Like scattered clouds shall pass a –\n3. And  if  once more revived  by  thee, __ Will al–ways  praise thy     ho –  ly     name,        Will always praise thy  ho   – ly" D,4 G,2 G,2 | %14
 G,2 G,2 A,B, A,G, | (F,4 E,2) E,2 | D,2 D,2 D,2 C,2 | (D,2 E,2) (F,2 G,2) | A,6 A,,2 | %19
 D,2 D,2 D,2 C,2 | (D,2 E,2) (F,2 E,2) | %21
"^1. –pear,   Ap   –   pear,           A – gain  in  solemn  state       ap    –    pear.\n2. – way,   A     –    way,          Like scatter'd clouds shall pass  a     –    way.\n3. name,   Thy       name,          Will  always  praise  thy   ho   – ly        name." D,4 C,4 | %22
 F,6 E,2 | D,2 E,2 F,2 G,2 | A,4 A,,4 | D,8 :| %26

